X:1
T:Monsell, 76.76 D
T:Monsell, 76.76 D
T:John Samuel Bewley Monsell, 1863
T:Public Domain Courtesy of the Cyber Hymnal™
C:John Samuel Bewley Monsell, 1863
Z:Public Domain
Z:Courtesy of the Cyber Hymnal™
%%score ( 1 2 ) ( 3 4 )
L:1/8
Q:1/4=108
M:4/4
K:Ab
V:1 treble 
V:2 treble 
V:3 bass 
V:4 bass 
V:1
 [CF]2 | [DF]2 [C=E]2 F2 [EG]2 | [FA]4 [=EG]2 [Gc]2 | [Fc]2 [FB]2 [FA]2 [FA]2 | [=EG]6 [CF]2 | %5
 [DF]2 [C=E]2 F2 [EG]2 | ([FA]2 [FA]2) [=EG]2 [Gc]2 | [Fc]2 [FB]2 [FA]2 [FA]2 | %8
 [=EG]6 ([_EA][GB]) | [Ac]2 [=Ec]2 [Fc]2 [FB]2 | c4 [FA]2 [Ac]2 | [Ge]2 [Ec]2 [EB]2 [EA]2 | %12
 [EB]6 (GA) | [EB]2 [=DB]2 [EB]2 [EG]2 | (A2 B2) [Ec]2 [FA]2 | B2 [FA]2 [FG]2 [_EG]2 x | [CF]6 |] %17
V:2
 x2 | x4 (C=D) x2 | x8 | x8 | x8 | x4 (C=D) x2 | x8 | x8 | x8 | x8 | (F2 =E2) x4 | x8 | x6 E2 | %13
 x8 | E4 x4 | (F=E) x7 | x6 |] %17
V:3
 [F,A,]2 | [B,,B,]2 G,2 [A,,A,]2 [G,,B,]2 | C4 [C,C]2 [=E,G,]2 | [F,A,]2 [D,B,]2 [C,C]2 [=B,,=D]2 | %4
 [C,G,]6 [F,A,]2 | [B,,B,]2 G,2 [A,,A,]2 [G,,B,]2 | ([F,,C]2 [A,,C]2) [C,C]2 [=E,G,]2 | %7
 [F,A,]2 [D,B,]2 [C,C]2 [=B,,=D]2 | [C,G,]6 (C[B,D]) | [A,E]2 [G,B,]2 [F,A,]2 [D,F,]2 | %10
 (G,2 C2) [F,C]2 [F,A,]2 | [E,B,]2 [A,,A,]2 [D,G,]2 [C,A,]2 | [E,G,]6 (B,A,) | %13
 [E,G,]2 [F,A,]2 [G,B,]2 B,2 | ([C,C]2 [G,,D]2) [A,,C]2 [F,,C]2 | [G,,B,]2 C2 C3 z B, | [F,,A,]6 |] %17
V:4
 x2 | x2 (C,B,,) x4 | (F,,2 A,,2) x4 | x8 | x8 | x2 (C,B,,) x4 | x8 | x8 | x8 | x8 | C,4 x4 | x8 | %12
 x6 E,2 | x6 (E,D,) | x8 | x2 (A,,B,,) C,2 C,2 x | x6 |] %17

